packages/assets/static/images/icons/barricade.svg

<svg width="24" height="24" viewBox="0 0 24 24" xmlns="http://www.w3.org/2000/svg">
<path d="M21.0005 5.25H3.00049C2.60266 5.25 2.22113 5.40804 1.93983 5.68934C1.65852 5.97064 1.50049 6.35218 1.50049 6.75V13.5C1.50049 13.8978 1.65852 14.2794 1.93983 14.5607C2.22113 14.842 2.60266 15 3.00049 15H5.25049V18C5.25049 18.1989 5.32951 18.3897 5.47016 18.5303C5.61081 18.671 5.80158 18.75 6.00049 18.75C6.1994 18.75 6.39017 18.671 6.53082 18.5303C6.67147 18.3897 6.75049 18.1989 6.75049 18V15H17.2505V18C17.2505 18.1989 17.3295 18.3897 17.4702 18.5303C17.6108 18.671 17.8016 18.75 18.0005 18.75C18.1994 18.75 18.3902 18.671 18.5308 18.5303C18.6715 18.3897 18.7505 18.1989 18.7505 18V15H21.0005C21.3983 15 21.7798 14.842 22.0611 14.5607C22.3425 14.2794 22.5005 13.8978 22.5005 13.5V6.75C22.5005 6.35218 22.3425 5.97064 22.0611 5.68934C21.7798 5.40804 21.3983 5.25 21.0005 5.25ZM21.0005 11.3147L16.4358 6.75H21.0005V11.3147ZM7.56518 6.75L14.3152 13.5H9.6858L3.00049 6.81469V6.75H7.56518ZM3.00049 8.93531L7.56518 13.5H3.00049V8.93531ZM21.0005 13.5H16.4358L9.6858 6.75H14.3152L21.0005 13.4363V13.5Z"/>
</svg>

<svg viewBox="0 0 24 24" xmlns="http://www.w3.org/2000/svg" aria-hidden="true" fill="currentColor"><path d="M21 5.25H3a1.5 1.5 0 0 0-1.5 1.5v6.75A1.5 1.5 0 0 0 3 15h2.25v3a.75.75 0 1 0 1.5 0v-3h10.5v3a.75.75 0 1 0 1.5 0v-3H21a1.5 1.5 0 0 0 1.5-1.5V6.75a1.5 1.5 0 0 0-1.5-1.5m0 6.065L16.437 6.75H21zM7.565 6.75l6.75 6.75h-4.63L3 6.815V6.75zM3 8.935 7.565 13.5H3zM21 13.5h-4.564l-6.75-6.75h4.63L21 13.436z"/></svg>
